X: 17393
T: High Road To Linton, The
R: reel
M: 4/4
K: Gmajor
|:c2cA ded2|edcd e2e2|c2cA ded2|edcA G2G2:|
g2ge a2ad|edcd e2e2|g2ge a2ad|edcA G2G2|
g2ge a2ad|edcd e2e2|c2cA ded2|edcA G2G2|

